static/images/past-sponsors/graftbase.svg

<svg fill="none" height="61" viewBox="0 0 302 61" width="302" xmlns="http://www.w3.org/2000/svg"><g fill="#000"><path d="m106.08 23.8637c-.458-1.6066-1.306-2.8617-2.544-3.7655-1.227-.9148-2.773-1.3723-4.6357-1.3723-2.6219 0-4.7474.9707-6.3762 2.912-1.6178 1.9302-2.4268 4.6803-2.4268 8.2506 0 3.5815.7979 6.3484 2.3934 8.3008 1.5954 1.9525 3.7542 2.9287 6.4765 2.9287 2.4098 0 4.3008-.6248 5.6738-1.8743 1.383-1.2608 2.097-2.9511 2.142-5.0709h-7.3639v-5.4558h14.3419v4.3178c0 3.0012-.635 5.5896-1.907 7.7653-1.272 2.1644-3.024 3.8268-5.255 4.9872-2.221 1.1603-4.776 1.7405-7.6652 1.7405-3.2132 0-6.036-.7085-8.4681-2.1254-2.4323-1.4281-4.329-3.4531-5.6902-6.075-1.35-2.6332-2.025-5.7572-2.025-9.372 0-3.7042.7085-6.8727 2.1254-9.5057 1.417-2.6331 3.336-4.6469 5.757-6.0415 2.4212-1.3947 5.1379-2.092 8.1502-2.092 2.5889 0 4.9319.4909 7.0289 1.4728 2.098.9818 3.816 2.3429 5.155 4.0834 1.338 1.7294 2.164 3.7265 2.476 5.9913z"/><path d="m117.186 47.0591v-25.7058h6.911v4.4852h.268c.469-1.5955 1.255-2.8005 2.36-3.6149 1.104-.8256 2.376-1.2384 3.816-1.2384.792 0 1.539.0836 2.242.251v6.326c-.335-.1115-.798-.2009-1.389-.2677-.591-.0782-1.132-.1172-1.623-.1172-1.573 0-2.879.4965-3.916 1.4894-1.027.9818-1.54 2.265-1.54 3.8492v14.5432z"/><path d="m141.178 47.5445c-2.454 0-4.49-.6415-6.108-1.9247-1.618-1.283-2.427-3.1964-2.427-5.7402 0-1.9189.452-3.4252 1.356-4.5186.903-1.0934 2.086-1.891 3.548-2.3932 1.472-.5132 3.057-.8478 4.753-1.0042 2.231-.2231 3.826-.4573 4.786-.7028.959-.2455 1.439-.7809 1.439-1.6066v-.1004c0-1.0599-.335-1.88-1.004-2.4602-.658-.5801-1.595-.8702-2.812-.8702-1.283 0-2.304.279-3.062.8368-.759.5579-1.261 1.2662-1.506 2.1254l-6.594-.5356c.491-2.3429 1.707-4.2005 3.648-5.5729 1.953-1.3723 4.469-2.0584 7.548-2.0584 1.908 0 3.693.3012 5.355.9037 1.663.6025 3.002 1.5452 4.017 2.8283 1.026 1.2719 1.54 2.9288 1.54 4.9705v17.338h-6.762v-3.5648h-.2c-.625 1.1938-1.562 2.1702-2.812 2.9287-1.239.7476-2.806 1.1214-4.703 1.1214zm2.042-4.9202c1.562 0 2.845-.4519 3.849-1.3556 1.004-.9149 1.506-2.0474 1.506-3.3974v-2.7278c-.279.1896-.714.3569-1.305.5019-.58.1451-1.205.2734-1.875.3851-.658.1003-1.249.1897-1.773.2677-1.25.1786-2.26.53-3.03 1.0543-.758.5245-1.137 1.2886-1.137 2.2928 0 .9819.351 1.7238 1.054 2.2258.714.5021 1.618.7532 2.711.7532z"/><path d="m173.124 21.3534v5.3553h-5.105v20.3504h-7.129v-20.3504h-3.632v-5.3553h3.632v-1.8577c0-2.8004.798-4.8868 2.393-6.2591 1.607-1.3723 3.621-2.0584 6.042-2.0584 1.093 0 2.092.0836 2.995.251.915.1674 1.596.318 2.042.4519l-1.255 5.3553c-.279-.0892-.625-.1729-1.038-.251s-.831-.1172-1.255-.1172c-1.049 0-1.779.2455-2.192.7364-.402.4797-.603 1.1548-.603 2.025v1.7238z"/><path d="m175.728 47.0592v-34.2744h7.129v12.8863h.218c.323-.7028.781-1.4113 1.372-2.1254.592-.714 1.373-1.3109 2.343-1.7907.971-.4909 2.17-.7363 3.598-.7363 1.886 0 3.615.4909 5.188 1.4727 1.573.9707 2.834 2.4378 3.783 4.4015.959 1.9524 1.439 4.4014 1.439 7.3469 0 2.8674-.463 5.2883-1.389 7.2631-.926 1.9636-2.176 3.4532-3.749 4.4685-1.573 1.004-3.336 1.5061-5.288 1.5061-1.384 0-2.561-.2287-3.532-.6861-.959-.4575-1.746-1.032-2.359-1.7237-.603-.7031-1.071-1.4115-1.406-2.1255h-.318v4.117zm6.979-12.8529c0 2.2872.468 4.128 1.406 5.5228.948 1.3834 2.281 2.0752 3.999 2.0752 1.752 0 3.091-.7031 4.017-2.1087.926-1.417 1.389-3.2467 1.389-5.4893 0-2.2314-.463-4.0389-1.389-5.4224-.915-1.3945-2.254-2.0919-4.017-2.0919-1.729 0-3.062.6806-3.999 2.0417-.938 1.35-1.406 3.1742-1.406 5.4726z"/><path d="m210.999 47.5445c-2.454 0-4.49-.6415-6.108-1.9247-1.618-1.283-2.427-3.1964-2.427-5.7402 0-1.9189.452-3.4252 1.356-4.5186s2.086-1.891 3.548-2.3932c1.472-.5132 3.057-.8478 4.752-1.0042 2.231-.2231 3.828-.4573 4.788-.7028.959-.2455 1.439-.7809 1.439-1.6066v-.1004c0-1.0599-.335-1.88-1.005-2.4602-.658-.5801-1.595-.8702-2.812-.8702-1.283 0-2.303.279-3.063.8368-.758.5579-1.26 1.2662-1.505 2.1254l-6.594-.5356c.491-2.3429 1.707-4.2005 3.648-5.5729 1.953-1.3723 4.468-2.0584 7.548-2.0584 1.907 0 3.693.3012 5.356.9037s3 1.5452 4.016 2.8283c1.027 1.2719 1.539 2.9288 1.539 4.9705v17.338h-6.761v-3.5648h-.2c-.626 1.1938-1.563 2.1702-2.812 2.9287-1.238.7476-2.805 1.1214-4.703 1.1214zm2.043-4.9202c1.561 0 2.844-.4519 3.849-1.3556 1.003-.9149 1.505-2.0474 1.505-3.3974v-2.7278c-.279.1896-.713.3569-1.306.5019-.579.1451-1.204.2734-1.873.3851-.659.1003-1.25.1897-1.774.2677-1.25.1786-2.26.53-3.029 1.0543-.759.5245-1.138 1.2886-1.138 2.2928 0 .9819.351 1.7238 1.054 2.2258.714.5021 1.617.7532 2.712.7532z"/><path d="m250.509 28.6835-6.526.4016c-.178-.8255-.63-1.5339-1.356-2.1254-.724-.5913-1.706-.8869-2.944-.8869-1.104 0-2.043.2343-2.813.7029-.758.4573-1.132 1.071-1.121 1.8408-.011.6137.23 1.1325.721 1.5566.502.4238 1.349.7641 2.543 1.0207l4.652.9373c4.943 1.0153 7.42 3.336 7.431 6.9619 0 1.6847-.496 3.1631-1.49 4.4349-.982 1.2719-2.33 2.265-4.05 2.9789-1.717.7031-3.687 1.0545-5.907 1.0545-3.403 0-6.114-.7085-8.133-2.1255-2.02-1.428-3.198-3.3695-3.533-5.8239l7.014-.3682c.222 1.0488.735 1.8408 1.539 2.3764.814.5356 1.858.8033 3.13.8033 1.249 0 2.254-.2455 3.012-.7363.769-.491 1.161-1.1158 1.172-1.8745-.034-1.2719-1.133-2.1253-3.298-2.5604l-4.451-.887c-4.976-.9931-7.454-3.4419-7.431-7.347-.011-2.4769.976-4.4293 2.963-5.8574 1.996-1.4281 4.641-2.1421 7.931-2.1421 3.247 0 5.802.6861 7.666 2.0584 1.874 1.3724 2.967 3.2411 3.279 5.6064z"/><path d="m265.414 47.5613c-2.632 0-4.903-.5356-6.81-1.6066-1.91-1.0823-3.375-2.6108-4.403-4.5856-1.027-1.986-1.538-4.3346-1.538-7.0456 0-2.6443.511-4.965 1.538-6.9622 1.028-1.997 2.472-3.5534 4.335-4.6691 1.874-1.1157 4.073-1.6735 6.594-1.6735 2.265 0 4.306.4797 6.125 1.4392 1.83.9595 3.281 2.4099 4.351 4.3513 1.071 1.9302 1.607 4.3511 1.607 7.2631v1.9582h-17.505v.0166c0 1.919.523 3.4308 1.573 4.5355 1.047 1.1045 2.466 1.6568 4.251 1.6568 1.193 0 2.226-.2511 3.095-.7532.871-.502 1.484-1.2439 1.842-2.2258l6.593.4352c-.502 2.3875-1.774 4.2954-3.815 5.7235-2.043 1.428-4.654 2.1422-7.833 2.1422zm-5.706-15.9491h10.794c-.011-1.5285-.502-2.7891-1.473-3.7822-.97-.993-2.231-1.4894-3.783-1.4894-1.584 0-2.884.5132-3.898 1.5396-1.016 1.0264-1.563 2.2705-1.64 3.732z"/><g clip-rule="evenodd" fill-rule="evenodd"><path d="m47.1086 8.41072c.4404.88051.0835 1.95118-.7971 2.39148l-17.6072 8.8036 16.8325 8.4162 16.8291-8.4145-6.4307-3.2084-9.6132 4.8013c-.8806.4399-1.9512.0826-2.391-.7981-.4401-.8807-.0826-1.9513.7982-2.3912l10.4091-5.1989c.5012-.2504 1.091-.2505 1.5921-.0004l10.4205 5.199c.6044.3015.9863.9188.9867 1.5942.0004.6755-.3812 1.293-.9854 1.5951l-20.7957 10.3978c-.2634.1317-.5437.1921-.8191.1885-.2758.0038-.5565-.0566-.8203-.1883l-20.7957-10.398c-.6039-.3019-.9854-.9192-.9854-1.5943 0-.6752.3815-1.2924.9854-1.5943l20.7957-10.39794c.8807-.44026 1.9513-.08336 2.3915.79716z"/><path d="m23.152 39.5973c.4402-.8806 1.5109-1.2375 2.3914-.7972l19.9986 9.9994 19.9987-9.9994c.8806-.4403 1.9512-.0834 2.3916.7972.4402.8805.0834 1.9511-.7973 2.3915l-20.7957 10.3978c-.5019.251-1.0926.251-1.5943 0l-20.7959-10.3978c-.8805-.4404-1.2374-1.511-.7971-2.3915z"/><path d="m23.152 29.1985c.4402-.8804 1.5109-1.2373 2.3914-.7971l19.9986 9.9993 19.9987-9.9993c.8806-.4402 1.9512-.0833 2.3916.7971.4402.8806.0834 1.9513-.7973 2.3915l-20.7957 10.398c-.5019.2508-1.0926.2508-1.5943 0l-20.7959-10.398c-.8805-.4402-1.2374-1.5109-.7971-2.3915z"/></g></g></svg>

<svg width="302" height="61" viewBox="0 0 302 61" fill="none" xmlns="http://www.w3.org/2000/svg">
<path d="M106.08 23.8637C105.622 22.2571 104.774 21.002 103.536 20.0982C102.309 19.1834 100.763 18.7259 98.9003 18.7259C96.2784 18.7259 94.1529 19.6966 92.5241 21.6379C90.9063 23.5681 90.0973 26.3182 90.0973 29.8885C90.0973 33.47 90.8952 36.2369 92.4907 38.1893C94.0861 40.1418 96.2449 41.118 98.9672 41.118C101.377 41.118 103.268 40.4932 104.641 39.2437C106.024 37.9829 106.738 36.2926 106.783 34.1728H99.4191V28.717H113.761V33.0348C113.761 36.036 113.126 38.6244 111.854 40.8001C110.582 42.9645 108.83 44.6269 106.599 45.7873C104.378 46.9476 101.823 47.5278 98.9338 47.5278C95.7206 47.5278 92.8978 46.8193 90.4657 45.4024C88.0334 43.9743 86.1367 41.9493 84.7755 39.3274C83.4255 36.6942 82.7505 33.5702 82.7505 29.9554C82.7505 26.2512 83.459 23.0827 84.8759 20.4497C86.2929 17.8166 88.2119 15.8028 90.6329 14.4082C93.0541 13.0135 95.7708 12.3162 98.7831 12.3162C101.372 12.3162 103.715 12.8071 105.812 13.789C107.91 14.7708 109.628 16.1319 110.967 17.8724C112.305 19.6018 113.131 21.5989 113.443 23.8637H106.08Z" fill="black"/>
<path d="M117.186 47.0591V21.3533H124.097V25.8385H124.365C124.834 24.243 125.62 23.038 126.725 22.2236C127.829 21.398 129.101 20.9852 130.541 20.9852C131.333 20.9852 132.08 21.0688 132.783 21.2362V27.5622C132.448 27.4507 131.985 27.3613 131.394 27.2945C130.803 27.2163 130.262 27.1773 129.771 27.1773C128.198 27.1773 126.892 27.6738 125.855 28.6667C124.828 29.6485 124.315 30.9317 124.315 32.5159V47.0591H117.186Z" fill="black"/>
<path d="M141.178 47.5445C138.724 47.5445 136.688 46.903 135.07 45.6198C133.452 44.3368 132.643 42.4234 132.643 39.8796C132.643 37.9607 133.095 36.4544 133.999 35.361C134.902 34.2676 136.085 33.47 137.547 32.9678C139.019 32.4546 140.604 32.12 142.3 31.9636C144.531 31.7405 146.126 31.5063 147.086 31.2608C148.045 31.0153 148.525 30.4799 148.525 29.6542V29.5538C148.525 28.4939 148.19 27.6738 147.521 27.0936C146.863 26.5135 145.926 26.2234 144.709 26.2234C143.426 26.2234 142.405 26.5024 141.647 27.0602C140.888 27.6181 140.386 28.3264 140.141 29.1856L133.547 28.65C134.038 26.3071 135.254 24.4495 137.195 23.0771C139.148 21.7048 141.664 21.0187 144.743 21.0187C146.651 21.0187 148.436 21.3199 150.098 21.9224C151.761 22.5249 153.1 23.4676 154.115 24.7507C155.141 26.0226 155.655 27.6795 155.655 29.7212V47.0592H148.893V43.4944H148.693C148.068 44.6882 147.131 45.6646 145.881 46.4231C144.642 47.1707 143.075 47.5445 141.178 47.5445ZM143.22 42.6243C144.782 42.6243 146.065 42.1724 147.069 41.2687C148.073 40.3538 148.575 39.2213 148.575 37.8713V35.1435C148.296 35.3331 147.861 35.5004 147.27 35.6454C146.69 35.7905 146.065 35.9188 145.395 36.0305C144.737 36.1308 144.146 36.2202 143.622 36.2982C142.372 36.4768 141.362 36.8282 140.592 37.3525C139.834 37.877 139.455 38.6411 139.455 39.6453C139.455 40.6272 139.806 41.3691 140.509 41.8711C141.223 42.3732 142.127 42.6243 143.22 42.6243Z" fill="black"/>
<path d="M173.124 21.3534V26.7087H168.019V47.0591H160.89V26.7087H157.258V21.3534H160.89V19.4957C160.89 16.6953 161.688 14.6089 163.283 13.2366C164.89 11.8643 166.904 11.1782 169.325 11.1782C170.418 11.1782 171.417 11.2618 172.32 11.4292C173.235 11.5966 173.916 11.7472 174.362 11.8811L173.107 17.2364C172.828 17.1472 172.482 17.0635 172.069 16.9854C171.656 16.9073 171.238 16.8682 170.814 16.8682C169.765 16.8682 169.035 17.1137 168.622 17.6046C168.22 18.0843 168.019 18.7594 168.019 19.6296V21.3534H173.124Z" fill="black"/>
<path d="M175.728 47.0592V12.7848H182.857V25.6711H183.075C183.398 24.9683 183.856 24.2598 184.447 23.5457C185.039 22.8317 185.82 22.2348 186.79 21.755C187.761 21.2641 188.96 21.0187 190.388 21.0187C192.274 21.0187 194.003 21.5096 195.576 22.4914C197.149 23.4621 198.41 24.9292 199.359 26.8929C200.318 28.8453 200.798 31.2943 200.798 34.2398C200.798 37.1072 200.335 39.5281 199.409 41.5029C198.483 43.4665 197.233 44.9561 195.66 45.9714C194.087 46.9754 192.324 47.4775 190.372 47.4775C188.988 47.4775 187.811 47.2488 186.84 46.7914C185.881 46.3339 185.094 45.7594 184.481 45.0677C183.878 44.3646 183.41 43.6562 183.075 42.9422H182.757V47.0592H175.728ZM182.707 34.2063C182.707 36.4935 183.175 38.3343 184.113 39.7291C185.061 41.1125 186.394 41.8043 188.112 41.8043C189.864 41.8043 191.203 41.1012 192.129 39.6956C193.055 38.2786 193.518 36.4489 193.518 34.2063C193.518 31.9749 193.055 30.1674 192.129 28.7839C191.214 27.3894 189.875 26.692 188.112 26.692C186.383 26.692 185.05 27.3726 184.113 28.7337C183.175 30.0837 182.707 31.9079 182.707 34.2063Z" fill="black"/>
<path d="M210.999 47.5445C208.545 47.5445 206.509 46.903 204.891 45.6198C203.273 44.3368 202.464 42.4234 202.464 39.8796C202.464 37.9607 202.916 36.4544 203.82 35.361C204.724 34.2676 205.906 33.47 207.368 32.9678C208.84 32.4546 210.425 32.12 212.12 31.9636C214.351 31.7405 215.948 31.5063 216.908 31.2608C217.867 31.0153 218.347 30.4799 218.347 29.6542V29.5538C218.347 28.4939 218.012 27.6738 217.342 27.0936C216.684 26.5135 215.747 26.2234 214.53 26.2234C213.247 26.2234 212.227 26.5024 211.467 27.0602C210.709 27.6181 210.207 28.3264 209.962 29.1856L203.368 28.65C203.859 26.3071 205.075 24.4495 207.016 23.0771C208.969 21.7048 211.484 21.0187 214.564 21.0187C216.471 21.0187 218.257 21.3199 219.92 21.9224C221.583 22.5249 222.92 23.4676 223.936 24.7507C224.963 26.0226 225.475 27.6795 225.475 29.7212V47.0592H218.714V43.4944H218.514C217.888 44.6882 216.951 45.6646 215.702 46.4231C214.464 47.1707 212.897 47.5445 210.999 47.5445ZM213.042 42.6243C214.603 42.6243 215.886 42.1724 216.891 41.2687C217.894 40.3538 218.396 39.2213 218.396 37.8713V35.1435C218.117 35.3331 217.683 35.5004 217.09 35.6454C216.511 35.7905 215.886 35.9188 215.217 36.0305C214.558 36.1308 213.967 36.2202 213.443 36.2982C212.193 36.4768 211.183 36.8282 210.414 37.3525C209.655 37.877 209.276 38.6411 209.276 39.6453C209.276 40.6272 209.627 41.3691 210.33 41.8711C211.044 42.3732 211.947 42.6243 213.042 42.6243Z" fill="black"/>
<path d="M250.509 28.6835L243.983 29.0851C243.805 28.2596 243.353 27.5512 242.627 26.9597C241.903 26.3684 240.921 26.0728 239.683 26.0728C238.579 26.0728 237.64 26.3071 236.87 26.7757C236.112 27.233 235.738 27.8467 235.749 28.6165C235.738 29.2302 235.979 29.749 236.47 30.1731C236.972 30.5969 237.819 30.9372 239.013 31.1938L243.665 32.1311C248.608 33.1464 251.085 35.4671 251.096 39.093C251.096 40.7777 250.6 42.2561 249.606 43.5279C248.624 44.7998 247.276 45.7929 245.556 46.5068C243.839 47.2099 241.869 47.5613 239.649 47.5613C236.246 47.5613 233.535 46.8528 231.516 45.4358C229.496 44.0078 228.318 42.0663 227.983 39.6119L234.997 39.2437C235.219 40.2925 235.732 41.0845 236.536 41.6201C237.35 42.1557 238.394 42.4234 239.666 42.4234C240.915 42.4234 241.92 42.1779 242.678 41.6871C243.447 41.1961 243.839 40.5713 243.85 39.8126C243.816 38.5407 242.717 37.6873 240.552 37.2522L236.101 36.3652C231.125 35.3721 228.647 32.9233 228.67 29.0182C228.659 26.5413 229.646 24.5889 231.633 23.1608C233.629 21.7327 236.274 21.0187 239.564 21.0187C242.811 21.0187 245.366 21.7048 247.23 23.0771C249.104 24.4495 250.197 26.3182 250.509 28.6835Z" fill="black"/>
<path d="M265.414 47.5613C262.782 47.5613 260.511 47.0257 258.604 45.9547C256.694 44.8724 255.229 43.3439 254.201 41.3691C253.174 39.3831 252.663 37.0345 252.663 34.3235C252.663 31.6792 253.174 29.3585 254.201 27.3613C255.229 25.3643 256.673 23.8079 258.536 22.6922C260.41 21.5765 262.609 21.0187 265.13 21.0187C267.395 21.0187 269.436 21.4984 271.255 22.4579C273.085 23.4174 274.536 24.8678 275.606 26.8092C276.677 28.7394 277.213 31.1603 277.213 34.0723V36.0305H259.708V36.0471C259.708 37.9661 260.231 39.4779 261.281 40.5826C262.328 41.6871 263.747 42.2394 265.532 42.2394C266.725 42.2394 267.758 41.9883 268.627 41.4862C269.498 40.9842 270.111 40.2423 270.469 39.2604L277.062 39.6956C276.56 42.0831 275.288 43.991 273.247 45.4191C271.204 46.8471 268.593 47.5613 265.414 47.5613ZM259.708 31.6122H270.502C270.491 30.0837 270 28.8231 269.029 27.83C268.059 26.837 266.798 26.3406 265.246 26.3406C263.662 26.3406 262.362 26.8538 261.348 27.8802C260.332 28.9066 259.785 30.1507 259.708 31.6122Z" fill="black"/>
<path fill-rule="evenodd" clip-rule="evenodd" d="M47.1086 8.41072C47.549 9.29123 47.1921 10.3619 46.3115 10.8022L28.7043 19.6058L45.5368 28.022L62.3659 19.6075L55.9352 16.3991L46.322 21.2004C45.4414 21.6403 44.3708 21.283 43.931 20.4023C43.4909 19.5216 43.8484 18.451 44.7292 18.0111L55.1383 12.8122C55.6395 12.5618 56.2293 12.5617 56.7304 12.8118L67.1509 18.0108C67.7553 18.3123 68.1372 18.9296 68.1376 19.605C68.138 20.2805 67.7564 20.898 67.1522 21.2001L46.3565 31.5979C46.0931 31.7296 45.8128 31.79 45.5374 31.7864C45.2616 31.7902 44.9809 31.7298 44.7171 31.5981L23.9214 21.2001C23.3175 20.8982 22.936 20.2809 22.936 19.6058C22.936 18.9306 23.3175 18.3134 23.9214 18.0115L44.7171 7.61356C45.5978 7.1733 46.6684 7.5302 47.1086 8.41072Z" fill="black"/>
<path fill-rule="evenodd" clip-rule="evenodd" d="M23.152 39.5973C23.5922 38.7167 24.6629 38.3598 25.5434 38.8001L45.542 48.7995L65.5407 38.8001C66.4213 38.3598 67.4919 38.7167 67.9323 39.5973C68.3725 40.4778 68.0157 41.5484 67.135 41.9888L46.3393 52.3866C45.8374 52.6376 45.2467 52.6376 44.745 52.3866L23.9491 41.9888C23.0686 41.5484 22.7117 40.4778 23.152 39.5973Z" fill="black"/>
<path fill-rule="evenodd" clip-rule="evenodd" d="M23.152 29.1985C23.5922 28.3181 24.6629 27.9612 25.5434 28.4014L45.542 38.4007L65.5407 28.4014C66.4213 27.9612 67.4919 28.3181 67.9323 29.1985C68.3725 30.0791 68.0157 31.1498 67.135 31.59L46.3393 41.988C45.8374 42.2388 45.2467 42.2388 44.745 41.988L23.9491 31.59C23.0686 31.1498 22.7117 30.0791 23.152 29.1985Z" fill="black"/>
</svg>
